Yaru++/mimetypes/48/text-x-java-source.svg

<svg height="48" viewBox="0 0 12.699375 12.699375" width="48" xmlns="http://www.w3.org/2000/svg" xmlns:xlink="http://www.w3.org/1999/xlink"><linearGradient id="a" gradientUnits="userSpaceOnUse" x1="6.350071" x2="6.350071" y1=".396856" y2="12.03795"><stop offset="0" stop-color="#fff"/><stop offset=".125" stop-color="#fff" stop-opacity=".098039"/><stop offset=".92500001" stop-color="#fff" stop-opacity=".098039"/><stop offset="1" stop-color="#fff" stop-opacity=".498039"/></linearGradient><linearGradient id="b" gradientTransform="matrix(0 -.02997086 .02997 0 -3.039509 13.625372)" gradientUnits="userSpaceOnUse" x1="459.03448" x2="35.310345" y1="419.23337" y2="207.36522"><stop offset="0" stop-color="#f2f2f2"/><stop offset="1" stop-color="#f9f9f9"/></linearGradient><path d="m4.1621982.39685644c-.5881133-.0089584-1.0513178.0135407-1.4323995.0775109-.3810845.0639688-.692923.1839554-.9213477.4118407-.228422.22788546-.3489841.53958346-.4123566.92082876-.0633725.3812456-.0757439.8453924-.07286 1.4349839v3.2399529 3.2415032c-.00286.5886852.00955 1.0525972.07286 1.4334332.063373.381246.1839346.692944.4123566.920829.2284247.227885.5402632.347873.9213477.411841.3810844.06397.8442174.07751 1.4323995.07751h4.3757443c.5881817 0 1.0510747-.01352 1.4313677-.07751.3802928-.064.6911788-.18439.9187598-.412357.227583-.227967.347434-.539443.411325-.920313.06389-.380868.07751-.844073.07751-1.4334332v-3.2415032-3.1748437l-2.8389625-2.84361416z" opacity=".1"/><path d="m4.1623596.39685644c-2.3346161 0-2.5858177.2397933-2.574375 2.57913196v3.2414149 3.2414145c-.011456 2.3393392.2397589 2.5791322 2.574375 2.5791322h4.3757787c2.3346157 0 2.5743747-.239767 2.5743747-2.5791322v-3.2414145l-.000177-3.1748438-2.6457031-2.64570306z" fill="none" opacity=".2" stroke="#000" stroke-width=".529141"/><path d="m4.1623596.39685644c-2.3346161 0-2.5858177.2397933-2.574375 2.57913196v3.2414149 3.2414145c-.011456 2.3393392.2397589 2.5791322 2.574375 2.5791322h4.3757787c2.3346157 0 2.5743747-.239767 2.5743747-2.5791322v-3.2414145l-.000177-3.1748438-2.6457031-2.64570306z" fill="url(#b)"/><path clip-rule="evenodd" d="m7.110845 3.571701c.3104415 1.2230186-1.0950275 1.5924063-1.6022828 2.3540752-.3454283.5189517.1695604 1.0765996.8716771 1.7100186-.2737959-.618934-1.2023292-1.1603397.0002646-2.1102976 1.4997671-1.1837723.7302141-1.9537962.7302141-1.9537962zm.9278692 1.5131437c.0000185 0-2.5359938.6332067-1.3248544 2.0288491.3575377.411571-.09379.781636-.09379.781636s.9073095-.468271.4907091-1.05499c-.3892333-.5468932-.6876104-.8185802.9279353-1.7554951zm.4491108 2.4929481c-.089105.000264-.1837177.01577-.2807832.04986-.077823.02755-.1186545.09159-.1186545.09159s.0492-.01979.1588956-.04269c.4485869-.09347 1.0913313.600519-.2986099 1.322595-.00643.0172-.027791.0365-.027775.0365 1.6529982-.434539 1.2925002-1.459202.566927-1.457852zm-2.9781649.07047c-.1088812-.0026-.5795862.0045-1.1420574.276582-.7604571.367702 1.8806716.535215 3.2480953.175563.1421616-.09702.338531-.181244.338531-.181244s-.5592779.09998-1.116545.146755c-.6820755.05722-1.4137367.06852-1.7810106.01937-.8695606-.116252.4766922-.436062.4766922-.436062s-.00815-.000529-.023706-.0011zm-.28976.841315c-1.2544364.416337.6983254.888822 2.4515402.375995-.1862733-.065664-.3045521-.185834-.3045521-.185834-.8572052.16497-1.3523406.1597-1.9794992.094951-.4848701-.050112-.1674889-.285111-.1674889-.285112zm.1773044.810959c-1.1390334.31826.6930128.9756502 2.1433079.354291-.2375338-.092308-.4079013-.19888-.4079013-.19888-.6467421.122248-.9467516.131878-1.5338119.064852-.4845077-.055571-.2015947-.220263-.2015947-.220263zm-.7911261.537668c-.511507.0158-1.5118527.4756972-.5970293.6241572 2.9567505.479264 5.3897281-.215873 4.622882-.5618912 0 0 .2094731.1727092-.2306577.3062352-.8369179.253495-3.4840127.329956-4.2192456.01013-.2641153-.115037.2313879-.2744912.3872965-.3081662.1625626-.03517.2553977-.02875.2553977-.02875-.045927-.03234-.1239221-.04465-.2186436-.04173zm4.4952478.4395512s-.0932.239288-1.1024642.429154c-1.1386101.214363-2.5432668.189369-3.3760548.05187 0 0 .1705791.141228 1.0472381.19765 1.3338788.08528 3.3827909-.04744 3.4312809-.678674z" fill="#dd4f37" fill-rule="evenodd" stroke-width="1.014829"/><path d="m1.5878047 6.2174033v3.2415025c-.011456 2.3393382.2397774 2.5790442 2.5743935 2.5790442h4.3757443c2.3346155 0 2.5743935-.239679 2.5743935-2.5790442v-3.2415025z" fill="#fff" opacity=".2"/><path d="m6.3500704.39685644v11.64109356h2.1878721c2.3346155 0 2.5743935-.239679 2.5743935-2.5790442v-3.2415025-3.1748438l-2.6457031-2.64570306z" fill="#fff" opacity=".1"/><path d="m4.1621982.39685644c-2.3346161 0-2.5858362.2397052-2.5743935 2.57904386v3.241503 3.2415025c-.011456 2.3393382.2397774 2.5790442 2.5743935 2.5790442h4.3757443c2.3346155 0 2.5743935-.239679 2.5743935-2.5790442v-3.2415025-3.1748438h-.264571v3.1748438 3.2415025c0 .5803222-.01624 1.0240722-.07028 1.3461042-.05402.322035-.13987.509123-.264054.633524-.124184.124388-.310701.2105-.6319708.264571-.321273.05406-.764397.07028-1.3435225.07028h-4.3757395c-.5791259 0-1.0227997-.01619-1.3450728-.07028-.3222705-.0541-.5102953-.14009-.635072-.264571-.124774-.124488-.2105874-.311351-.2640517-.633005-.0534671-.321654-.0684682-.765512-.0656267-1.3455892v-.000529-3.2420075-3.2420198-.0005291c-.00283-.5800778.01217-1.0239334.065627-1.3455882.053467-.3216548.1392777-.5085248.2640517-.63300516.124774-.1244803.3133201-.2104736.6355905-.2645703.3222705-.0540718.7654284-.070264 1.3445543-.070264h4.3044347v-.2645703z" fill="url(#a)" opacity=".4"/><path d="m11.112336 3.3071299v-.2645704l-2.6457031-2.64570306h-.2645703v1.11359066.042668.022917c0 1.5059289.201592 1.7381397 1.7109766 1.7307589z" opacity=".2"/><path d="m11.112336 3.0422209-2.6457031-2.64536506v.98127596.042668.022917c0 1.5059289.069402 1.6058846 1.5787861 1.5985039z" fill="#faf8f6"/></svg>

<?xml version="1.0" encoding="UTF-8" standalone="no"?>
<svg
   xmlns:dc="http://purl.org/dc/elements/1.1/"
   xmlns:cc="http://creativecommons.org/ns#"
   xmlns:rdf="http://www.w3.org/1999/02/22-rdf-syntax-ns#"
   xmlns:svg="http://www.w3.org/2000/svg"
   xmlns="http://www.w3.org/2000/svg"
   xmlns:xlink="http://www.w3.org/1999/xlink"
   xmlns:sodipodi="http://sodipodi.sourceforge.net/DTD/sodipodi-0.dtd"
   xmlns:inkscape="http://www.inkscape.org/namespaces/inkscape"
   height="48"
   viewBox="0 0 12.699375 12.699375"
   width="48"
   version="1.1"
   id="svg33"
   sodipodi:docname="text-x-java-source.svg"
   inkscape:version="0.92.5 (2060ec1f9f, 2020-04-08)">
  <metadata
     id="metadata39">
    <rdf:RDF>
      <cc:Work
         rdf:about="">
        <dc:format>image/svg+xml</dc:format>
        <dc:type
           rdf:resource="http://purl.org/dc/dcmitype/StillImage" />
      </cc:Work>
    </rdf:RDF>
  </metadata>
  <defs
     id="defs37">
    <linearGradient
       gradientTransform="matrix(0.26457031,0,0,0.26457031,-84.662116,-16.006503)"
       inkscape:collect="always"
       xlink:href="#linearGradient927"
       id="linearGradient1004"
       x1="344"
       y1="62"
       x2="344"
       y2="106"
       gradientUnits="userSpaceOnUse" />
    <linearGradient
       inkscape:collect="always"
       id="linearGradient927">
      <stop
         style="stop-color:#ffffff;stop-opacity:1;"
         offset="0"
         id="stop923" />
      <stop
         id="stop933"
         offset="0.125"
         style="stop-color:#ffffff;stop-opacity:0.09803922" />
      <stop
         id="stop931"
         offset="0.92500001"
         style="stop-color:#ffffff;stop-opacity:0.09803922" />
      <stop
         style="stop-color:#ffffff;stop-opacity:0.49803922"
         offset="1"
         id="stop925" />
    </linearGradient>
    <linearGradient
       inkscape:collect="always"
       xlink:href="#linearGradient4338"
       id="linearGradient1024"
       gradientUnits="userSpaceOnUse"
       gradientTransform="matrix(0,-0.02997086,0.02997,0,-3.0395088,13.625372)"
       x1="459.03448"
       y1="419.23337"
       x2="35.310345"
       y2="207.36522" />
    <linearGradient
       inkscape:collect="always"
       id="linearGradient4338">
      <stop
         style="stop-color:#f2f2f2;stop-opacity:1"
         offset="0"
         id="stop4340" />
      <stop
         style="stop-color:#f9f9f9;stop-opacity:1"
         offset="1"
         id="stop4342" />
    </linearGradient>
  </defs>
  <sodipodi:namedview
     pagecolor="#ffffff"
     bordercolor="#666666"
     borderopacity="1"
     objecttolerance="10"
     gridtolerance="10"
     guidetolerance="10"
     inkscape:pageopacity="0"
     inkscape:pageshadow="2"
     inkscape:window-width="834"
     inkscape:window-height="480"
     id="namedview35"
     showgrid="false"
     inkscape:zoom="4.9166667"
     inkscape:cx="24"
     inkscape:cy="24"
     inkscape:window-x="0"
     inkscape:window-y="28"
     inkscape:window-maximized="0"
     inkscape:current-layer="svg33" />
  <linearGradient
     id="a"
     gradientUnits="userSpaceOnUse"
     x1="344"
     x2="344"
     y1="62"
     y2="106">
    <stop
       offset="0"
       stop-color="#fff"
       id="stop2" />
    <stop
       offset=".125"
       stop-color="#fff"
       stop-opacity=".098039"
       id="stop4" />
    <stop
       offset=".92500001"
       stop-color="#fff"
       stop-opacity=".098039"
       id="stop6" />
    <stop
       offset="1"
       stop-color="#fff"
       stop-opacity=".498039"
       id="stop8" />
  </linearGradient>
  <clipPath
     id="b">
    <path
       d="m335.73108 62c-8.82418 0-9.77365.90635-9.7304 9.74838v12.25162 12.25162c-.0433 8.84203.90622 9.74838 9.7304 9.74838h16.53919c8.82418 0 9.7304-.90625 9.7304-9.74838v-12.25162-12.25162c0-8.84213-.90622-9.74838-9.7304-9.74838z"
       id="path11" />
  </clipPath>
  <linearGradient
     id="c"
     gradientTransform="matrix(0 -.02997086 .02997 0 -3.039509 13.625372)"
     gradientUnits="userSpaceOnUse"
     x1="459.03448"
     x2="35.310345"
     y1="419.23337"
     y2="207.36522">
    <stop
       offset="0"
       stop-color="#f2f2f2"
       id="stop14" />
    <stop
       offset="1"
       stop-color="#f9f9f9"
       id="stop16" />
  </linearGradient>
  <path
     style="color:#000000;font-style:normal;font-variant:normal;font-weight:normal;font-stretch:normal;font-size:medium;line-height:normal;font-family:sans-serif;font-variant-ligatures:normal;font-variant-position:normal;font-variant-caps:normal;font-variant-numeric:normal;font-variant-alternates:normal;font-feature-settings:normal;text-indent:0;text-align:start;text-decoration:none;text-decoration-line:none;text-decoration-style:solid;text-decoration-color:#000000;letter-spacing:normal;word-spacing:normal;text-transform:none;writing-mode:lr-tb;direction:ltr;text-orientation:mixed;dominant-baseline:auto;baseline-shift:baseline;text-anchor:start;white-space:normal;shape-padding:0;clip-rule:nonzero;display:inline;overflow:visible;visibility:visible;opacity:0.1;isolation:auto;mix-blend-mode:normal;color-interpolation:sRGB;color-interpolation-filters:linearRGB;solid-color:#000000;solid-opacity:1;vector-effect:none;fill:#000000;fill-opacity:1;fill-rule:nonzero;stroke:none;stroke-width:0.52914065;stroke-linecap:butt;stroke-linejoin:miter;stroke-miterlimit:4;stroke-dasharray:none;stroke-dashoffset:0;stroke-opacity:1;marker:none;color-rendering:auto;image-rendering:auto;shape-rendering:auto;text-rendering:auto;enable-background:accumulate"
     d="M 4.1621982,0.39685644 C 3.5740849,0.38789804 3.1108804,0.41039714 2.7297987,0.47436734 2.3487142,0.53833614 2.0368757,0.65832274 1.808451,0.88620804 1.580029,1.1140935 1.4594669,1.4257915 1.3960944,1.8070368 1.3327219,2.1882824 1.3203505,2.6524292 1.3232344,3.2420207 v 3.2399529 3.2415032 c -0.00286,0.5886852 0.00955,1.0525972 0.07286,1.4334332 0.063373,0.381246 0.1839346,0.692944 0.4123566,0.920829 0.2284247,0.227885 0.5402632,0.347873 0.9213477,0.411841 0.3810844,0.06397 0.8442174,0.07751 1.4323995,0.07751 h 4.3757443 c 0.5881817,0 1.0510747,-0.01352 1.4313677,-0.07751 0.3802928,-0.064 0.6911788,-0.18439 0.9187598,-0.412357 0.227583,-0.227967 0.347434,-0.539443 0.411325,-0.920313 0.06389,-0.380868 0.07751,-0.844073 0.07751,-1.4334332 V 6.4819736 3.3071299 L 8.5379425,0.46351574 Z"
     id="path1020"
     inkscape:connector-curvature="0"
     sodipodi:nodetypes="sccsccccccsscccscccs" />
  <path
     style="color:#000000;display:inline;overflow:visible;visibility:visible;opacity:0.2;fill:none;fill-opacity:1;fill-rule:nonzero;stroke:#000000;stroke-width:0.52914065;stroke-miterlimit:4;stroke-dasharray:none;stroke-opacity:1;marker:none;enable-background:accumulate"
     d="m 4.1623596,0.39685644 c -2.3346161,0 -2.5858177,0.2397933 -2.574375,2.57913196 V 6.2174033 9.4588178 C 1.5765286,11.798157 1.8277435,12.03795 4.1623596,12.03795 h 4.3757787 c 2.3346157,0 2.5743747,-0.239767 2.5743747,-2.5791322 V 6.2174033 L 11.112336,3.0425595 8.4666329,0.39685644 Z"
     id="path958"
     inkscape:connector-curvature="0"
     sodipodi:nodetypes="scccssscccs" />
  <path
     style="color:#000000;display:inline;overflow:visible;visibility:visible;fill:url(#linearGradient1024);fill-opacity:1;fill-rule:nonzero;stroke:none;stroke-width:0.26457033;marker:none;enable-background:accumulate"
     d="m 4.1623596,0.39685644 c -2.3346161,0 -2.5858177,0.2397933 -2.574375,2.57913196 V 6.2174033 9.4588178 C 1.5765286,11.798157 1.8277435,12.03795 4.1623596,12.03795 h 4.3757787 c 2.3346157,0 2.5743747,-0.239767 2.5743747,-2.5791322 V 6.2174033 L 11.112336,3.0425595 8.4666329,0.39685644 Z"
     id="path964"
     inkscape:connector-curvature="0"
     sodipodi:nodetypes="scccssscccs" />
  <path
     id="path1121"
     d="M 7.110845,3.571701 C 7.4212865,4.7947196 6.0158175,5.1641073 5.5085622,5.9257762 5.1631339,6.4447279 5.6781226,7.0023758 6.3802393,7.6357948 6.1064434,7.0168608 5.1779101,6.4754551 6.3805039,5.5254972 7.880271,4.3417249 7.110718,3.571701 7.110718,3.571701 Z m 0.9278692,1.5131437 c 1.85e-5,0 -2.5359938,0.6332067 -1.3248544,2.0288491 0.3575377,0.411571 -0.09379,0.781636 -0.09379,0.781636 0,0 0.9073095,-0.468271 0.4907091,-1.05499 C 6.7215456,6.2934466 6.4231685,6.0217596 8.0387142,5.0848447 Z M 8.487825,7.5777928 c -0.089105,2.64e-4 -0.1837177,0.01577 -0.2807832,0.04986 -0.077823,0.02755 -0.1186545,0.09159 -0.1186545,0.09159 0,0 0.0492,-0.01979 0.1588956,-0.04269 0.4485869,-0.09347 1.0913313,0.600519 -0.2986099,1.322595 -0.00643,0.0172 -0.027791,0.0365 -0.027775,0.0365 1.6529982,-0.434539 1.2925002,-1.459202 0.566927,-1.457852 z m -2.9781649,0.07047 c -0.1088812,-0.0026 -0.5795862,0.0045 -1.1420574,0.276582 -0.7604571,0.367702 1.8806716,0.535215 3.2480953,0.175563 0.1421616,-0.09702 0.338531,-0.181244 0.338531,-0.181244 0,0 -0.5592779,0.09998 -1.116545,0.146755 -0.6820755,0.05722 -1.4137367,0.06852 -1.7810106,0.01937 -0.8695606,-0.116252 0.4766922,-0.436062 0.4766922,-0.436062 0,0 -0.00815,-5.29e-4 -0.023706,-0.0011 z m -0.28976,0.841315 C 3.9654637,8.9059148 5.9182255,9.3783998 7.6714403,8.8655728 7.485167,8.7999088 7.3668882,8.6797388 7.3668882,8.6797388 6.509683,8.8447088 6.0145476,8.8394388 5.387389,8.7746898 4.9025189,8.7245778 5.2199001,8.4895788 5.2199001,8.4895778 Z m 0.1773044,0.810959 C 4.2581711,9.6187968 6.0902173,10.276187 7.5405124,9.6548278 7.3029786,9.5625198 7.1326111,9.4559478 7.1326111,9.4559478 6.485869,9.5781958 6.1858595,9.5878258 5.5987992,9.5207998 5.1142915,9.4652288 5.3972045,9.3005368 5.3972045,9.3005368 Z m -0.7911261,0.537668 c -0.511507,0.0158 -1.5118527,0.4756972 -0.5970293,0.6241572 2.9567505,0.479264 5.3897281,-0.215873 4.622882,-0.5618912 0,0 0.2094731,0.1727092 -0.2306577,0.3062352 -0.8369179,0.253495 -3.4840127,0.329956 -4.2192456,0.01013 -0.2641153,-0.115037 0.2313879,-0.2744912 0.3872965,-0.3081662 0.1625626,-0.03517 0.2553977,-0.02875 0.2553977,-0.02875 -0.045927,-0.03234 -0.1239221,-0.04465 -0.2186436,-0.04173 z m 4.4952478,0.4395512 c 0,0 -0.0932,0.239288 -1.1024642,0.429154 -1.1386101,0.214363 -2.5432668,0.189369 -3.3760548,0.05187 0,0 0.1705791,0.141228 1.0472381,0.19765 1.3338788,0.08528 3.3827909,-0.04744 3.4312809,-0.678674 z"
     style="clip-rule:evenodd;display:inline;fill:#dd4f37;fill-opacity:1;fill-rule:evenodd;stroke-width:1.01482868;enable-background:new"
     inkscape:connector-curvature="0" />
  <path
     style="color:#000000;display:inline;overflow:visible;visibility:visible;opacity:0.2;fill:#ffffff;fill-opacity:1;fill-rule:nonzero;stroke:none;stroke-width:0.26457033;marker:none;enable-background:accumulate"
     d="M 1.5878047,6.2174033 V 9.4589058 C 1.5763487,11.798244 1.8275821,12.03795 4.1621982,12.03795 h 4.3757443 c 2.3346155,0 2.5743935,-0.239679 2.5743935,-2.5790442 V 6.2174033 Z"
     id="path1006"
     inkscape:connector-curvature="0" />
  <path
     style="color:#000000;display:inline;overflow:visible;visibility:visible;opacity:0.1;fill:#ffffff;fill-opacity:1;fill-rule:nonzero;stroke:none;stroke-width:0.26457033;marker:none;enable-background:accumulate"
     d="M 6.3500704,0.39685644 V 12.03795 h 2.1878721 c 2.3346155,0 2.5743935,-0.239679 2.5743935,-2.5790442 V 6.2174033 3.0425595 L 8.4666329,0.39685644 Z"
     id="path1013"
     inkscape:connector-curvature="0"
     sodipodi:nodetypes="ccsscccc" />
  <path
     style="color:#000000;font-style:normal;font-variant:normal;font-weight:normal;font-stretch:normal;font-size:medium;line-height:normal;font-family:sans-serif;font-variant-ligatures:normal;font-variant-position:normal;font-variant-caps:normal;font-variant-numeric:normal;font-variant-alternates:normal;font-feature-settings:normal;text-indent:0;text-align:start;text-decoration:none;text-decoration-line:none;text-decoration-style:solid;text-decoration-color:#000000;letter-spacing:normal;word-spacing:normal;text-transform:none;writing-mode:lr-tb;direction:ltr;text-orientation:mixed;dominant-baseline:auto;baseline-shift:baseline;text-anchor:start;white-space:normal;shape-padding:0;clip-rule:nonzero;display:inline;overflow:visible;visibility:visible;opacity:0.4;isolation:auto;mix-blend-mode:normal;color-interpolation:sRGB;color-interpolation-filters:linearRGB;solid-color:#000000;solid-opacity:1;vector-effect:none;fill:url(#linearGradient1004);fill-opacity:1;fill-rule:nonzero;stroke:none;stroke-width:0.52914065;stroke-linecap:butt;stroke-linejoin:miter;stroke-miterlimit:4;stroke-dasharray:none;stroke-dashoffset:0;stroke-opacity:1;marker:none;color-rendering:auto;image-rendering:auto;shape-rendering:auto;text-rendering:auto;enable-background:accumulate"
     clip-path="none"
     d="m 4.1621982,0.39685644 c -2.3346161,0 -2.5858362,0.2397052 -2.5743935,2.57904386 v 3.241503 3.2415025 C 1.5763487,11.798244 1.8275821,12.03795 4.1621982,12.03795 h 4.3757443 c 2.3346155,0 2.5743935,-0.239679 2.5743935,-2.5790442 V 6.2174033 3.0425595 h -0.264571 v 3.1748438 3.2415025 c 0,0.5803222 -0.01624,1.0240722 -0.07028,1.3461042 -0.05402,0.322035 -0.13987,0.509123 -0.264054,0.633524 -0.124184,0.124388 -0.310701,0.2105 -0.6319708,0.264571 -0.321273,0.05406 -0.764397,0.07028 -1.3435225,0.07028 H 4.1621982 c -0.5791259,0 -1.0227997,-0.01619 -1.3450728,-0.07028 -0.3222705,-0.0541 -0.5102953,-0.14009 -0.635072,-0.264571 C 2.0572794,11.314046 1.971466,11.127183 1.9180017,10.805529 1.8645346,10.483875 1.8495335,10.040017 1.852375,9.4599398 V 9.4594108 6.2174033 2.9753835 2.9748544 c -0.00283,-0.5800778 0.01217,-1.0239334 0.065627,-1.3455882 0.053467,-0.3216548 0.1392777,-0.5085248 0.2640517,-0.63300516 0.124774,-0.1244803 0.3133201,-0.2104736 0.6355905,-0.2645703 0.3222705,-0.0540718 0.7654284,-0.070264 1.3445543,-0.070264 h 4.3044347 v -0.2645703 z"
     id="path990"
     inkscape:connector-curvature="0" />
  <path
     inkscape:connector-curvature="0"
     style="color:#000000;display:inline;overflow:visible;visibility:visible;opacity:0.2;fill:#000000;fill-opacity:1;fill-rule:nonzero;stroke:none;stroke-width:0.06614863;marker:none;enable-background:accumulate"
     d="M 11.112336,3.3071299 V 3.0425595 L 8.4666329,0.39685644 H 8.2020626 v 1.11359066 0.042668 0.022917 c 0,1.5059289 0.201592,1.7381397 1.7109766,1.7307589 z"
     id="rect4158-0-3-62-2"
     sodipodi:nodetypes="ccccccscc" />
  <path
     inkscape:connector-curvature="0"
     style="color:#000000;display:inline;overflow:visible;visibility:visible;fill:#faf8f6;fill-opacity:1;fill-rule:nonzero;stroke:none;stroke-width:0.06614863;marker:none;enable-background:accumulate"
     d="M 11.112336,3.0422209 8.4666329,0.39685584 v 0.98127596 0.042668 0.022917 c 0,1.5059289 0.069402,1.6058846 1.5787861,1.5985039 z"
     id="rect4158-0-3-62"
     sodipodi:nodetypes="ccccscc" />
</svg>
